src/icons/main-saved.svg

<svg enable-background="new 0 0 11 14" viewBox="0 0 11 14" xmlns="http://www.w3.org/2000/svg"><path d="m6.6 0h-5.9c-.4 0-.7.3-.7.7v12.6c0 .4.3.7.7.7h9.5c.4 0 .7-.3.7-.7v-9.1zm2.9 12.6h-8v-11.2h4.4v3.5h3.7v7.7zm-6-4.7c-.2-.1-.4-.2-.6-.2-.4 0-.7.3-.7.7 0 .2.1.4.2.5l2.2 2.1c.1.1.3.2.5.2s.4-.1.6-.3l2.9-3.5c.1-.1.2-.2.2-.4 0-.4-.3-.7-.7-.7-.2 0-.4.1-.6.3l-2.4 2.8z" fill="#4d5969"/></svg>

<?xml version="1.0" encoding="utf-8"?>
<!-- Generator: Adobe Illustrator 20.1.0, SVG Export Plug-In . SVG Version: 6.00 Build 0)  -->
<svg version="1.1" id="Layer_1" xmlns="http://www.w3.org/2000/svg" xmlns:xlink="http://www.w3.org/1999/xlink" x="0px" y="0px"
	 viewBox="0 0 11 14" style="enable-background:new 0 0 11 14;" xml:space="preserve">
<style type="text/css">
	.st0{fill:#4D5969;}
</style>
<title>HDL/Icon/Standard/saved</title>
<desc>Created with Sketch.</desc>
<g id="Colors">
	<g id="Main-Icons" transform="translate(-119.000000, -407.000000)">
		<g id="Saved" transform="translate(101.000000, 389.000000)">
			<g id="HDL_x2F_Icon_x2F_Standard_x2F_saved" transform="translate(18.000000, 18.000000)">
				<path id="Shape" class="st0" d="M6.6,0H0.7C0.3,0,0,0.3,0,0.7v12.6C0,13.7,0.3,14,0.7,14h9.5c0.4,0,0.7-0.3,0.7-0.7V4.2L6.6,0z
					 M9.5,12.6H1.5V1.4h4.4v3.5h3.7V12.6z M3.5,7.9C3.3,7.8,3.1,7.7,2.9,7.7C2.5,7.7,2.2,8,2.2,8.4c0,0.2,0.1,0.4,0.2,0.5L4.6,11
					c0.1,0.1,0.3,0.2,0.5,0.2c0.2,0,0.4-0.1,0.6-0.3l0,0l2.9-3.5l0,0C8.7,7.3,8.8,7.2,8.8,7c0-0.4-0.3-0.7-0.7-0.7
					c-0.2,0-0.4,0.1-0.6,0.3l0,0L5.1,9.4L3.5,7.9z"/>
			</g>
		</g>
	</g>
</g>
</svg>
